src/img/vk.svg

<svg width="18" height="18" viewBox="0 0 18 18" fill="none" xmlns="http://www.w3.org/2000/svg">
<path fill-rule="evenodd" clip-rule="evenodd" d="M0 2C0 0.895508 0.895508 0 2 0H16C17.1045 0 18 0.895508 18 2V16C18 17.1045 17.1045 18 16 18H2C0.895508 18 0 17.1045 0 16V2ZM4 5.5H2.5C2.08008 5.5 2 5.7002 2 5.91992C2 6.31006 2.5 8.24023 4.33008 10.7998C5.54004 12.5498 7.26001 13.5 8.82007 13.5C9.76001 13.5 9.87012 13.29 9.87012 12.9302V11.6099C9.87012 11.1802 9.95996 11.1001 10.26 11.1001C10.5 11.1001 10.8501 11.21 11.73 12.0498C12.0325 12.3521 12.2581 12.6045 12.4412 12.8091C12.8633 13.2808 13.0593 13.5 13.45 13.5H14.9299C15.3501 13.5 15.5601 13.29 15.4399 12.8701C15.3 12.46 14.8301 11.8599 14.1899 11.1499C14.0117 10.9351 13.7837 10.7114 13.5857 10.5171C13.4062 10.3413 13.2512 10.1895 13.1799 10.0898C12.96 9.7998 13 9.68018 13.1799 9.43018C13.1799 9.43018 14.97 6.8999 15.1599 6.04004C15.26 5.72998 15.1599 5.5 14.71 5.5H13.24C12.8701 5.5 12.7 5.7002 12.6001 5.91992C12.6001 5.91992 11.8501 7.74023 10.79 8.93018C10.45 9.27002 10.29 9.37988 10.1001 9.37988C10 9.37988 9.87012 9.27002 9.87012 8.95996V6.04004C9.87012 5.66992 9.77002 5.5 9.44995 5.5H7.13989C6.8999 5.5 6.76001 5.66992 6.76001 5.83984C6.76001 5.97314 6.83691 6.06885 6.9353 6.19141C7.09546 6.39062 7.31299 6.66064 7.3501 7.27979V9.4502C7.3501 9.91992 7.26001 10 7.07007 10C6.57007 10 5.36011 8.16992 4.63989 6.06982C4.5 5.66016 4.36011 5.5 4 5.5Z" fill="#91A1BB"/>
</svg>

<svg width="18" height="18" fill="none" xmlns="http://www.w3.org/2000/svg"><path fill-rule="evenodd" clip-rule="evenodd" d="M0 2a2 2 0 0 1 2-2h14a2 2 0 0 1 2 2v14a2 2 0 0 1-2 2H2a2 2 0 0 1-2-2V2zm4 3.5H2.5c-.42 0-.5.2-.5.42 0 .39.5 2.32 2.33 4.88 1.21 1.75 2.93 2.7 4.49 2.7.94 0 1.05-.21 1.05-.57v-1.32c0-.43.09-.51.39-.51.24 0 .59.11 1.47.95.303.302.528.554.711.76.422.47.618.69 1.009.69h1.48c.42 0 .63-.21.51-.63-.14-.41-.61-1.01-1.25-1.72-.178-.215-.406-.439-.604-.633-.18-.176-.335-.327-.406-.427-.22-.29-.18-.41 0-.66 0 0 1.79-2.53 1.98-3.39.1-.31 0-.54-.45-.54h-1.47c-.37 0-.54.2-.64.42 0 0-.75 1.82-1.81 3.01-.34.34-.5.45-.69.45-.1 0-.23-.11-.23-.42V6.04c0-.37-.1-.54-.42-.54H7.14c-.24 0-.38.17-.38.34 0 .133.077.229.175.351.16.2.378.47.415 1.089v2.17c0 .47-.09.55-.28.55-.5 0-1.71-1.83-2.43-3.93-.14-.41-.28-.57-.64-.57z" fill="#91A1BB"/></svg>
